X: 2062
T: White River Rising
R: reel
C: Rick Gagne
N: 1993 on tenor banjo
M: 4/4
Q: 1/4=175
K: Em
"C"Ec~c2 cBAG|"Am"ABce aged|"Bm"cB~B2 BAGF|"Em"G2FG EFGF| 
"C"Ec~c2 cBAG|"Am"ABce aged|"Bm"cB~B2 BAGF |1 "Em"FGFG E2GF :|\
[2 "Em"G2FG EGBe ||
"G"bgaf gafg|"C"efde cdBc|"D"Aaag fgaf|"Em"geBe ceBe|
"G"bgaf gafg |"C"efde cdBc |"D"Aaag fgaf |1 "Em"gfed efga :|\
[2 "Em"gfed e2BG ||
